X:148
T:Humors of Ballylaughlin, The
S:Chuck Whittemore
L:1/8
R:Jig
M:6/8
K:Dmix
A3 AGE | GED D3 | c3 ded | cAG FED |
A3 AGE | G3 cGE | D3 DFA | DED D3 :|
|: c3 cAB | cAG ABc | d3 ded | dAF DFA |
cBc dcB | cAG FGE | D3 DFA | DED D3 :|
|: fdd gdd | fdd ged | cde ged | cde g3 |
fdd gdd | fdd ged | cde gag | fdc d2e :|
|: A3 A2G | F3 GED | E3 EFD | EFD EFG |
A3 dAG | F3 GEA D3 DFA | D3 D3 :|

%%newpage
%%scale .7
%%staffsep 40

